src/normal/calc.svg

<!-- Generated by IcoMoon.io -->
<svg version="1.1" xmlns="http://www.w3.org/2000/svg" width="24" height="24" viewBox="0 0 24 24">
<title>calculator</title>
<path d="M4 16h3v-3h-3v3zM5 14h1v1h-1v-1zM8 16h3v-3h-3v3zM9 14h1v1h-1v-1zM8 20h3v-3h-3v3zM9 18h1v1h-1v-1zM4 20h3v-3h-3v3zM5 18h1v1h-1v-1zM12 16h3v-3h-3v3zM13 14h1v1h-1v-1zM10 10h1v-1h-1v1zM8 10h1v-1h-1v1zM4 12h16v-9h-16v9zM5 4h14v7h-14v-7zM20 0h-16c-1.657 0-3 1.343-3 3v18c0 1.657 1.343 3 3 3h16c1.657 0 3-1.343 3-3v-18c0-1.657-1.343-3-3-3zM21 21c0 0.553-0.447 1-1 1h-16c-0.553 0-1-0.447-1-1v-18c0-0.553 0.447-1 1-1h16c0.553 0 1 0.447 1 1v18zM12 20h3v-3h-3v3zM13 18h1v1h-1v-1zM16 20h4v-7h-4v7zM17 14h2v5h-2v-5zM6 10h1v-1h-1v1z"></path>
</svg>

<svg xmlns="http://www.w3.org/2000/svg" width="24" height="24"><path d="M4 16h3v-3H4v3zm1-2h1v1H5v-1zm3 2h3v-3H8v3zm1-2h1v1H9v-1zm-1 6h3v-3H8v3zm1-2h1v1H9v-1zm-5 2h3v-3H4v3zm1-2h1v1H5v-1zm7-2h3v-3h-3v3zm1-2h1v1h-1v-1zm-3-4h1V9h-1v1zm-2 0h1V9H8v1zm-4 2h16V3H4v9zm1-8h14v7H5V4zm15-4H4a3 3 0 00-3 3v18a3 3 0 003 3h16a3 3 0 003-3V3a3 3 0 00-3-3zm1 21a1 1 0 01-1 1H4a1 1 0 01-1-1V3a1 1 0 011-1h16a1 1 0 011 1v18zm-9-1h3v-3h-3v3zm1-2h1v1h-1v-1zm3 2h4v-7h-4v7zm1-6h2v5h-2v-5zM6 10h1V9H6v1z"/></svg>
